X:1
T:8. Dance Song: TIle Lovers Bill alld Coo
T:15. Slow Dance
T:For Children Nr 15 , Sz 42 
T:Béla Bartók Revised and Arranged by the Composer, January 1945 
T:Book 2 (after Slovakian Folksongs)
T:16. Lamentoso
%%score { ( 1 3 ) | ( 2 4 ) }
L:1/8
Q:1/4=60
M:3/4
K:C
V:1 bass nm="Piano" snm="Pno."
V:3 bass 
V:2 bass 
V:4 bass 
V:1
"^Molto tranquillo" z!f! !tenuto!!1!!3!!5![G,B,D]2 !tenuto![G,B,D]2 .!1!!4!!5![^F,CD] | %1
 z !tenuto![G,B,D]2 !tenuto![G,B,D]2 .[^F,CD] | %2
 z !tenuto![G,B,D]2 !tenuto![G,B,D]2 .!1!!2!!5![^F,A,D] | %3
 z !tenuto![G,B,D]2 !tenuto![G,B,D]2 .[^F,CD] | %4
 z !tenuto![G,B,D]2 !tenuto![G,B,D]2 .!1!!3!!4![^F,CD] | %5
[K:treble]"^pesante" (!2!GA BA !^!!2!G>!1!D) | (GA BA G>D) |"_sempre cresc." (GA !1!Bc d>c) | %8
 (Bc B!3!A G>D) | (!2!GD GD G>D) | (GA BA G>D) |!f!"^allargando"[Q:1/4=55]"^T" (!2!G!3!A BA G>D) | %12
[Q:1/4=50]"^T" (GA BA G>D) |[Q:1/4=45]"^T" (!5!G!ff!!3![G,D] G[G,D] G>[G,D-]) | [DG]6 |] %15
[M:3/4][Q:1/4=50]"^Lento"!mf! !tenuto!!1!B/!tenuto!!3!B/(!2!B/A/) (B<e- e2) | %16
 (d/e/d/c/) (!2!B<!1!G- G2) | !tenuto!!4!A/!tenuto!!3!A/(!2!A/G/)"_poco dim." (A<!1!B- B2) | %18
 (!5!B/A/B/G/) (!2!E<D- D2) | (!4!B/!3!B/A/G/) !tenuto!A<!p!A G2 | %20
!pp!"^dolcissimo" (!4!d/e/d/!2!B/ !1!G<^F E2) | !tenuto!!4!B/!tenuto!!3!B/(!2!B/!1!A/) (B<e- e2) | %22
 (d/e/d/c/) (B<G- G2) | !tenuto!!4!A/!tenuto!!3!A/(!4!A/!3!G/) (!4!A<!5!B- B2) | %24
 (B/!3!A/B/G/) (E<D- D2) | !tenuto!!5!B/(!tenuto!!5!B/!4!A/G/) !5!A<!5!A !4!G2 | %26
 (!4!d/e/d/!2!B/ !5!G<^F E2) |] %27
V:2
 (!3!G,,A,, B,,A,, !^!G,,>!5!D,,) | (G,,A,, B,,A,, !^!G,,>D,,) | (!3!G,,A,, B,,!2!C, !^!D,>C,) | %3
 (B,,C, !1!B,,A,, !^!G,,>D,,) | (!2!G,,!5!D,, G,,D,, G,,>D,, | %5
 !tenuto!!2!G,,) !tenuto!!3!!2!!1![G,B,D]2 !tenuto![G,B,D]2 !tenuto!!4!!2!!1![E,G,C-] | %6
 [E,G,C] !tenuto!!5!!2!!1![D,G,B,]2 !tenuto![D,G,B,]2 !tenuto!!4!!2!!1![C,^F,A,] | %7
 z !tenuto!!5!!3!!1![B,,D,G,]2 !tenuto![B,,D,G,]2 !tenuto!!4!!2!!1![A,,C,F,] | %8
 z !tenuto!!5!!2!!1![G,,C,F,]2 !tenuto![G,,C,F,]2 !tenuto!!5!!3!!1![G,,B,,F,] | %9
 z !^!!5!!2![C,,G,,]2 !tenuto!!5!!2!!1![C,F,G,]2 !tenuto![C,F,G,] | %10
 z!<(! !5!!3!!1![C,E,G,]2 [C,E,G,]2!<)! !^!!5!!3!!1![D,^F,C] | x !1!D,2 D,2 D,/ z/ | %12
 x D,2 D,2 D,/ z/ | G,,, !4!!2![B,,D,]2 !2!!1![D,F,]!3!!1![C,E,]!4!!2![A,,C,] | %14
 !3!!1![B,,D,]2 !5!G,,,4 |][M:3/4] z2 !3!!1![E,G,]4- | [E,G,]6- | [E,G,]2 [D,^F,]4 | %18
 [C,E,]2 !5!!2![B,,^F,]4 | !5!!3![A,C]6 | (!2!D/E/D/!3!B,/ !1!G,<!2!^F,"_[    ]" !1!E,2) | %21
 (!1!G,>^F,) G,4 | (!1!G,!4!E,/!3!^F,/) !2!G,<B,- B,2 | E,2- E,<^F,- F,2 | %24
 z !tenuto!.!1
5
![E,^C] !2
4
![^F,=C]4 | (!1!G,!2!D,/B,,/) !1!D,<!2!D, !tenuto!G,,2 | %26
 (D,/E,/D,/B,,/ G,,<^F,,"_attaca" E,,2) |] %27
V:3
 x6 | x6 | x6 | x6 | x6 |[K:treble] x6 | x6 | x6 | x6 | x6 | x6 | z !1!D2 D2"_cresc." z | %12
 z D2 D2 z | x6 | x6 |][M:3/4] x6 | x6 | x6 | x6 | x6 | x6 | x6 | x6 | !1!E2- E<!1!D- D2 | x6 | %25
 !1!D2 !1!C<!2!C !1!B,2 | z2 !1!B,2 E2 |] %27
V:4
 x6 | x6 | x6 | x6 | x6 | x6 | x6 | x6 | x6 | x6 | x6 | (!3!G,,!2!A,, B,,A,, G,,>D,,) | %12
 (!3!G,,A,, B,,A,, G,,>D,,) | x6 | x6 |][M:3/4] x6 | x6 | x6 | x6 | x6 | x2 !5!B,,2 !5!E,,2 | %21
 !3!E,2 (E,<C,- C,2) | !5!D,2 !4!E,4 | (!2
4
!C,2- C,<B,,- B,,2) | x6 | x6 | z2 B,,,2 E,,2 |] %27

